src/assets/img/icons/activity/loop.svg

<svg width="60" height="51" viewBox="0 0 60 51" fill="none" xmlns="http://www.w3.org/2000/svg">
<path d="M42.25 18.0368L25 9.04757L42.25 -5.2962e-07L42.25 5.98483L46.5625 5.98483C53.6975 5.98483 59.5 10.0111 59.5 14.9621L59.5 32.9166C59.5 37.8675 53.6975 41.8938 46.5625 41.8938L42.25 41.8938L42.25 35.909L46.5625 35.909C48.9387 35.909 50.875 34.5654 50.875 32.9166L50.875 14.9621C50.875 13.3132 48.9387 11.9697 46.5625 11.9697L42.25 11.9697L42.25 18.0368Z" fill="#EDE1CE"/>
<path d="M17.25 32.8419L34.5 41.8312L17.25 50.8789L17.25 44.894L12.9375 44.894C5.80247 44.894 -6.31146e-07 40.8677 -9.43276e-07 35.9167L-2.07521e-06 17.962C-2.38734e-06 13.011 5.80247 8.98462 12.9375 8.98462L17.25 8.98462L17.25 14.9695L12.9375 14.9695C10.5613 14.9695 8.625 16.3131 8.625 17.962L8.625 35.9167C8.625 37.5655 10.5613 38.9091 12.9375 38.9091L17.25 38.9091L17.25 32.8419Z" fill="#EDE1CE"/>
</svg>

<svg width="60" height="51" fill="none" xmlns="http://www.w3.org/2000/svg"><path d="M42.25 18.037L25 9.047 42.25 0v5.985h4.313c7.134 0 12.937 4.026 12.937 8.977v17.955c0 4.95-5.803 8.977-12.938 8.977H42.25v-5.985h4.313c2.376 0 4.312-1.344 4.312-2.992V14.962c0-1.649-1.936-2.992-4.313-2.992H42.25v6.067zm-25 14.805l17.25 8.99-17.25 9.047v-5.985h-4.313C5.803 44.894 0 40.868 0 35.917V17.962c0-4.951 5.802-8.977 12.938-8.977h4.312v5.985h-4.313c-2.376 0-4.312 1.343-4.312 2.992v17.955c0 1.648 1.936 2.992 4.313 2.992h4.312v-6.067z" fill="#EDE1CE"/></svg>
